Sources/FrostedUI/Resources/Icons.xcassets/mail16.imageset/mail-16.svg

<svg width="16" height="16" viewBox="0 0 16 16" fill="none" xmlns="http://www.w3.org/2000/svg" data-fui-icon="true">
  <path
    d="M13.21 1.5C14.7508 1.5 16 2.74916 16 4.29004V11.71C16 13.2508 14.7508 14.5 13.21 14.5H2.79004C1.24916 14.5 0 13.2508 0 11.71V4.29004C0 2.74916 1.24916 1.5 2.79004 1.5H13.21ZM10.3145 9.25C9.64129 9.73745 8.83112 10 8 10C7.16888 10 6.35871 9.73745 5.68555 9.25L1.5 6.21875V11.71C1.5 12.4224 2.07759 13 2.79004 13H13.21C13.9224 13 14.5 12.4224 14.5 11.71V6.21875L10.3145 9.25ZM2.79004 3C2.07759 3 1.5 3.57759 1.5 4.29004V4.36719L6.56543 8.03516C6.98269 8.3373 7.48483 8.5 8 8.5C8.51517 8.5 9.01731 8.3373 9.43457 8.03516L14.5 4.36719V4.29004C14.5 3.57759 13.9224 3 13.21 3H2.79004Z"
    fill="currentColor"
  />
</svg>

<svg xmlns="http://www.w3.org/2000/svg" width="16" height="16" fill="none" data-fui-icon="true" viewBox="0 0 16 16"><path fill="currentColor" d="M13.21 1.5A2.79 2.79 0 0 1 16 4.29v7.42a2.79 2.79 0 0 1-2.79 2.79H2.79A2.79 2.79 0 0 1 0 11.71V4.29A2.79 2.79 0 0 1 2.79 1.5zm-2.895 7.75a3.95 3.95 0 0 1-4.63 0L1.5 6.219v5.491c0 .712.578 1.29 1.29 1.29h10.42a1.29 1.29 0 0 0 1.29-1.29V6.219zM2.79 3A1.29 1.29 0 0 0 1.5 4.29v.077l5.065 3.668a2.45 2.45 0 0 0 2.87 0L14.5 4.367V4.29A1.29 1.29 0 0 0 13.21 3z"/></svg>
